X: 11919
T: Emporer's Manbag, The
R: slide
M: 12/8
K: Dmixolydian
d2d A2d c2d B2E|D2d A2B c3-c2 G/E/|D2d A2d c2d B2E|D2d A2d c3-c2 E|
D2d A2B cdc BGE|D2 d A2B cBA BGE|D2d A2B cdc BGE|D2 d A2B c3-c2 E|
D2D A2B A2D DFA|GAB AGF B2E EFE|D2D A2B A2D DFA|d^cB AGF E2D DFE|
D2D A2B A2D DFA|GAB AGF B2E EFE|
D2D A2B A2D DFA|1 d^cB AGF E2D DFA:|2 d^cB AGF EFE D3||

